X: 300
T: Be easy you rogue!
C: anon.
O: Ireland
B: Francis O'Neill: "The Dance Music of Ireland" (1907) no. 299
R: Double jig
Z: Transcribed by Frank Nordberg - http://www.musicaviva.com
F: http://www.musicaviva.com/abc/tunes/ireland/oneill-1001/oneill-1001-029
9.abc
m: Mn = (3n/o/n/
M: 6/8
L: 1/8
K: A
E|(A<c)A BAF|d3 d2 z|(A/B/c).A BAF|B3 B2 z|(A<c)A BAF|ded dfa|ecA MBAF|A3
 A2:|
|:(c/d/)|ecA ecA|d3 dfa|ecA ecA|B3 B2 z|AcA BAF|DFA dfa|ecA MBAF|A3 A2:|
|:d|cAA BFF|AEE fda|ecA BAF|B2 z B2d|.c(A/B/c/A/) .B(G/A/B/G/)|.A(E/F/G/E
/) dfa|ecA <BAF|A3 A2:|
|:e|aga (f/e/d/c/B/A/)|ddd d2f|aga (f/e/d/c/B/A/)|BBB B2 (f/g/)|aga (f/e/
d/c/B/A/)|DFA dfa|ecA MBAF|A3 A2:|
W:
W:
W: From Musica Viva - http://www.musicaviva.com
W: the Internet center for free sheet music downloads.
